!!!COM: Mozart, Wolfgang Amadeus
!!!CDT: 1756/01/27/-1791/12/05/
!!!CNT: German
!!!OTL: Piano Sonata No. 14 in C minor
!!!SCT1: K<sup>1</sup> 310
!!!SCT2: K<sup>6</sup> 300d
!!!OMV: Mvmt. 2
!!!OMD: Adagio
!!!ODT: 1784///
**kern	**kern	**dynam
*staff2	*staff1	*staff1/2
*clefF4	*clefG2	*clefG2
*k[b-e-a-]	*k[b-e-a-]	*k[b-e-a-]
*E-:	*E-:	*E-:
*M4/4	*M4/4	*M4/4
*met(c)	*met(c)	*met(c)
*MM60	*MM60	*MM60
=1-	=1-	=1-
*	*^	*
!	!LO:TX:i:b:t=(sotto voce)	!	!
(16E-LL	4b-	2ryy	.
16G	.	.	.
16B-	.	.	.
16GJJ	.	.	.
16E-LL	8gL	.	.
16G	.	.	.
16B-	8gJ	.	.
16GJJ	.	.	.
16BB-LL	(8..gL	(4e-	.
16E-	.	.	.
16G	.	.	.
16E-JJ	.	.	.
.	32a-Jkk)	.	.
16BB-LL	8f	8d)	.
16D	.	.	.
16F	8r	8r	.
16DJJ)	.	.	.
=2	=2	=2	=2
4E-	4e-	(16GLL	f
.	.	16B-	.
.	.	16G	.
.	.	16B-JJ)	.
4BB-	4f	(16dLL	.
.	.	16B-	.
.	.	16d	.
.	.	16B-JJ)	.
4EE-	(16.gLL	8e-	p
.	32a-JJk	.	.
.	32b-LLL	8r	.
.	32cc	.	.
.	32dd	.	.
.	32ee-JJJ)	.	.
4r	16b-	8r	.
.	16r	.	.
!	!	!LO:S:a	!
.	8r	(16ee- 16ggLL	.
.	.	16dd 16ffJJ	.
=3	=3	=3	=3
8r	16cc\ 16ee-\LL	4ryy	.
.	16b-\ 16dd\	.	.
(16DLL	16a-\ 16cc\	.	.
16E-JJ	16g\ 16b-\JJ	.	.
!	!LO:TX:i:b:t=cresc.	!	!
16FLL	16f 16a-LL	4ryy	<
16G	16g 16e-	.	.
16A-	16c 16cc	.	.
16FJJ)	16f 16a-JJ)	.	.
(16AnLL	(4g	(4e-	f
16B-	.	.	.
16G	.	.	.
16E-JJ	.	.	.
8BB-)	(16f'LL)	8d)	.
.	16g'	.	p
8r	16a-'	8r	.
.	16an'JJ)	.	.
=4	=4	=4	=4
(16E-LL	[8b-L	4ryy	.
16G	.	.	.
!	!LO:S:b	!	!
16B-	(32b-LL]	.	.
.	32dd	.	.
16GJJ	32ee-	.	.
.	32b-JJJ	.	.
16E-LL	(16gLL)	4ryy	.
16G	16g'	.	.
16B-	16g'	.	.
16GJJ	16g'JJ	.	.
16BB-LL	(8..gL	(4e-)	.
16E-	.	.	.
16G	.	.	.
16E-JJ	.	.	.
.	32a-Jkk	.	.
16BB-LL	8f)	8d)	.
16D	.	.	.
16F	32r	8r	.
.	(32b-LLL	.	.
16DJJ)	32a-	.	.
.	32fJJJ)	.	.
=5	=5	=5	=5
4E-	4e-	16r	.
.	.	(16GLL	.
.	.	16B-	.
.	.	(16GJJ)	.
4BB-	4f	16dLL	.
.	.	16B-	.
.	.	16d	.
.	.	16B-JJ)	.
4EE-	(16.gLL	8e-	p
.	32a-JJk	.	.
.	32b-LLL	8r	.
.	32cc	.	.
.	32dd	.	.
.	32ee-JJJ)	.	.
4r	16b-	4r	.
.	16r	.	.
.	(32ee-'LLL	.	.
.	32dd'	.	.
.	32dd-'	.	.
.	32cc'JJJ)	.	.
*	*v	*v	*
=6	=6	=6
16r	16bn	.
16G 16e-	16r	.
8r	(32ee-'LLL	.
.	32ddn'	.
.	32dd-'	.
.	32cc'JJJ)	.
16r	16b	.
16G 16e-	16r	.
8r	(32ee-'LLL	.
.	32ddn'	.
.	32dd-'	.
.	32cc'JJJ)	.
(4G [4e-	(4b	f
16A-) 16e-]	16cc)	p
16r	16r	.
8r	32f'LLL	.
.	32g'	.
.	32a-'	.
.	32an'JJJ	.
=7	=7	=7
*^	*^	*
8r	8r	[8b-L	4r	.
8E-	8GG	(32b-LL]	.	.
.	.	32cc	.	.
.	.	32dd	.	.
.	.	(32ee-JJJ)	.	.
(8GL	4BB-	8.e-L	8.B-L	f
8A-J)	.	.	.	.
.	.	32gLL	16dJk	.
.	.	32fJJJ	.	.
2r	8E-' 8G'L	8e-'L	2r	p
.	8E-' 8G'J	8e-'J)	.	.
.	4r	4r	.	.
*v	*v	*	*	*
=8	=8	=8	=8
2B-	4ff	(16ddLL	p
.	.	16f	.
.	.	16dd	.
.	.	(16fJJ)	.
.	4dd	16b-LL	.
.	.	16f	.
.	.	16b-	.
.	.	16fJJ)	.
[4FF [4F	2r	[8dd [8ffL	.
.	.	32dd] (32ffLL]	.
.	.	32cc# 32een	.
.	.	32ccn 32ee-	.
.	.	32b- 32ddJJJ)	.
16FF] 16F]	.	16an 16cc	.
16r	.	16r	.
8r	.	32dd (32ff#LLL	.
.	.	32ee- 32gg	.
.	.	32dd 32ff#	.
.	.	32ee- 32ggJJJ)	.
*clefG2	*	*	*
*	*v	*v	*
=9	=9	=9
*^	*	*
(32g-LLL	2r	16an 16cc	.
32f	.	.	.
32g-	.	16r	.
32fJJJ)	.	.	.
8r	.	32dd (32ff#LLL	.
.	.	32ee- 32gg	.
.	.	32dd 32ff#	.
.	.	32ee- 32ggJJJ)	.
(32g-LLL	.	16a 16cc	.
32f	.	.	.
32g-	.	16r	.
32fJJJ)	.	.	.
8r	.	32bnLLL	.
.	.	(32cc	.
.	.	32dd	.
.	.	(32ee-JJJ)	.
16r	4B-	8.ffnL	f
(16cLL	.	.	.
16e-	.	.	.
16anJJ)	.	32ggLL	p
.	.	32ee-JJJ	.
16B- 16b-	4r	16dd)	.
16r	.	16r	.
8r	.	(32.ffLLL	.
.	.	64ddk	.
.	.	32.ff	.
.	.	64ddJJJk	.
*v	*v	*	*
*clefF4	*	*
=10	=10	=10
16DLL	8bb-)	.
16F	.	.
(16B-	[4bb-	.
16FJJ	.	.
16DLL	.	.
16F	.	.
16B-	(32bb-LLL]	.
.	32ccc	.
16FJJ	32ddd	.
.	32bb-JJJ	.
16E-LL	16aanLL	.
16G	16ggJJ)	.
16B-	[4gg	.
16GJJ	.	.
16E-LL	.	.
16G	.	.
16B-	(32ggLLL]	.
.	32aa	.
16GJJ	32bb-	.
.	32ggJJJ	.
=11	=11	=11
16FLL	16ffLL	.
16An	16ee-J)	.
16c	[8ee-J	.
16AJJ	.	.
16FLL	(16ee-LL]	.
16A	16ee-'	.
16c	16ee-'	.
16AJJ	16ee-'JJ	.
16GLL	(8cc#L)	.
16B-	.	.
16d	8ddJ)	.
16B-JJ	.	.
16GLL	16r	.
16B-	(32b-LLL	.
.	32dd'JJJ	.
16d	32ee-'LLL	.
.	32ff'	.
16B-JJ)	32gg'	.
.	32aan'JJJ)	.
=12	=12	=12
(16DLL	(32.bb-LLL	f
.	64ffk)	.
16F	(32.ddd	.
.	64bb-JJk)	.
16B-	[8fffJ	.
16FJJ	.	.
16DLL	(32fffLLL]	.
.	32ddd	.
16F	32bbn	.
.	32aa-JJJ	.
16A-	32ffLLL	.
.	32dd	.
16FJJ	32bn	.
.	32a-JJJ	.
16E-LL	16gLK)	.
16G	8ff#	.
16c	.	.
16GJJ	8gg	.
16EnLL	.	.
16G	8aan	.
16d-	.	.
16GJJ	[16bb-Jk	.
=13	=13	=13
16FLL	16bb-LL]	.
16B-	(32dddnL	.
.	32fffJJ	.
16dn	[8ffJ	.
16B-JJ	.	.
16FLL	32ffLLL]	.
.	32ff#	.
16An	32gg	.
.	32ffnJJJ)	.
16c	(32ffLLL	.
.	32ee-	.
16AJJ)	32dd	.
.	32ccJJJ	.
(32B-LLL	8b-)	p
32d	.	.
32f	.	.
32d	.	.
32f	8r	.
32d	.	.
32f	.	.
32dJJJ	.	.
8F 8e-)	(32anLLL	<
.	32cc	.
.	32gg	.
.	32ff	.
8r	32gg	.
.	32ff	.
.	32gg	.
.	32ffJJJ)	.
=14	=14	=14
(32B-LLL	(8ffL	<
32d	.	.
32f	.	.
32d	.	.
32f	16bb-Jk)	.
32d	.	.
32f	16r	.
32dJJJ	.	.
8F 8e-)	(32anLLL	<
.	32cc	.
.	32gg	.
.	32ff	.
8r	32gg	.
.	32ff	.
.	32gg	.
.	32ffJJJ)	.
(32B-LLL	(8ffL	<
32d	.	.
32f	.	.
32d	.	.
32f	16b-Jk)	.
32d	.	.
32f	16r	.
(32dJJJ	.	.
4F 4e-)	(32anLLL	.
.	32cc)	.
.	32gg	.
.	32ff	.
.	32gg	.
.	32ff	.
.	32gg	.
.	32ffJJJ)	.
=15	=15	=15
8B- 8d	(32ffLLL	.
.	32b-	.
.	32bb-)	.
.	32bb-'JJJ	.
8r	(32bb-LLL	.
.	32dd	.
.	32ddd)	.
.	32ddd'JJJ	.
8r	(32dddLLL	.
.	32ff	.
.	32fff)	.
.	(32fff'JJJ	.
*clefG2	*	*
(8f 8an (8ee-	32fff'LLL	p
.	32fff'	.
.	32fff'	.
.	32fff'JJJ)	.
16b-) 16dd)	16bb-	.
16r	16r	.
(8f 8a (8ee-	(32fff'LLL	.
.	32fff'	.
.	32fff'	.
.	32fff'JJJ)	.
16b-) 16dd)	16bb-	.
16r	16r	.
(8f 8a (8ee-	(32fff'LLL	pp
.	32fff'	.
.	32fff'	.
.	32fff'JJJ)	.
=16	=16	=16
*	*^	*
16b-) 16dd)	16bb-	4r	.
16r	16r	.	.
*clefF4	*clefF4	*clefF4	*clefF4
(4CC (4C	[4F [4A-	.	.
.	.	8r	.
8CC-) 8C-)	8F] 8A-]	(4E-	.
4BBB- 4BB-	8r	.	.
*	*clefG2	*clefG2	*clefG2
.	4r	8D)	.
4r	.	32E-LLL	p
.	.	32D	.
.	.	32F	.
.	.	32A-JJJ	.
.	32ffLLL	32dLLL	.
.	32aa-JJJ	32f	.
.	16r	32a-	.
.	.	32ddJJJ	.
=17	=17	=17	=17
(16E-LL	[8b-L	2r	p
16G	.	.	.
16B-	(32b-LL]	.	.
.	64anL	.	.
.	64b-	.	.
16GJJ	64cc	.	.
.	64b-	.	.
.	64a	.	.
.	64b-JJJJ	.	.
16E-LL	8gL)	.	.
16G	.	.	.
16B-	8gJ	.	.
16GJJ	.	.	.
16BB-LL	8..gL	(4e-	.
16E-	.	.	.
16G	.	.	.
16E-JJ	.	.	.
.	32aJkk)	.	.
16BB-LL	8f	8d	.
16D	.	.	.
16F)	32r	8r	.
.	(32b-LLL	.	.
16DJJ	32a	.	.
.	32fJJJ)	.	.
=18	=18	=18	=18
4E-	4e-	(16GLL	f
.	.	16B-	.
.	.	16G	.
.	.	(16B-JJ)	.
4BB-	4f	16dLL	.
.	.	16B-	.
.	.	16d	.
.	.	16B-JJ)	.
4EE-	(16.gLL	8e-	.
.	32a-JJk	.	p
.	32b-LLL	8r	.
.	32cc	.	.
.	32dd	.	.
.	32ee-JJJ)	.	.
4r	16b-	8r	.
.	16r	.	.
.	16ee- 16ggLL	8r	.
.	16dd (16ffJJ	.	.
=19	=19	=19	=19
8r	16cc 16ee-LL	2r	<
.	[16b- (16dd	.	.
(16DD 16DLL	32b-] 32ddk	.	.
.	16a- 16cc)	.	.
16EE- 16E-	.	.	.
.	16g 16b-	.	.
16FF 16F	.	.	.
.	16f 16a-	.	.
16GG 16G	.	.	.
.	32e- 32gk	.	.
16AA- 16A-	16c 16cc	.	.
16FF) 16FJJ	16f 16a-JJ)	.	.
(16AnLL	(4g	(4e-	f
16B-	.	.	.
16G	.	.	.
16E-JJ	.	.	.
8BB-)	16fLL)	8d)	.
.	(16g'	.	p
8r	16a-'	8r	.
.	16an'JJ)	.	.
=20	=20	=20	=20
(16E-LL	([8b-L	2r	.
16G	.	.	.
16B-	32b-LL]	.	.
.	32dd	.	.
16GJJ	32ee-	.	.
.	32b-JJJ	.	.
16E-LL	16gLL)	.	.
16G	16g	.	.
16B-	16g	.	.
16GJJ	16gJJ	.	.
16BB-LL	8..gL	(4e-	.
16E-	.	.	.
16G	.	.	.
16E-JJ	.	.	.
.	32a-Jkk	.	.
16BB-LL	8f	8d)	.
16D	.	.	.
16F	32r	8r	.
.	(32B-LLL	.	.
16BB-JJ)	32c	.	.
.	32dJJJ	.	.
=21	=21	=21	=21
4E-	4e-)	16r	f
.	.	16B-LL	.
.	.	16G	.
.	.	(16B-JJ	.
4BB-	4f	16dLL	.
.	.	16B-	.
.	.	16d	.
.	.	16B-JJ)	.
4EE-	(16.gLL	8e-	.
.	32a-JJk	.	.
.	32b-LLL	8r	p
.	32cc	.	.
.	32dd	.	p
.	32ee-JJJ)	.	f
4r	16b-	4r	.
.	16r	.	.
.	(32ee-'LLL	.	.
.	32dd'	.	.
.	32dd-'	.	.
.	32cc'JJJ)	.	.
*	*v	*v	*
=22	=22	=22
16r	16bn	.
16G 16e-	16r	.
8r	(32ee-'LLL	.
.	(32ddn'	.
.	32dd-')	.
.	32cc'JJJ)	.
16r	16b	.
16G 16e-	16r	.
8r	(32ee-'LLL	.
.	32ddn'	.
.	32dd-'	.
.	32cc'JJJ)	.
(4G (4d- [4e-	(4b	.
8A-) 8c) 8e-]	16cc)	.
.	16r	.
8r	(32f'LLL	.
.	32g'	.
.	32a-'	.
.	32an'JJJ)	.
=23	=23	=23
*^	*^	*
8r	4r	[8b-L	4r	<
8GG 8E-	.	32b-LL]	.	.
.	.	(64ddL	.	.
.	.	64cc	.	.
.	.	64ee-	.	.
.	.	64dd	.	.
.	.	64ff	.	.
.	.	64ee-JJJJ)	.	.
(8GL	4BB-	(8.e-L	8.B-L	f
8A-J	.	.	.	.
.	.	32gLL	16dJk	.
.	.	32fJJJ	.	.
2r	8E-' 8G'L)	8e-'L)	2r	p
.	8E-' 8G'J	8e-'J	.	.
.	4r	4r	.	.
=24	=24	=24	=24	=24
2r	16AAA-LL	2r	4cc 4aa-	.
.	16AA-	.	.	.
.	16AA-	.	.	.
.	16AA-JJ	.	.	.
.	16AA-LL	.	4b- 4gg	.
.	16AA-	.	.	.
.	16AA-	.	.	.
.	16AA-JJ	.	.	.
4C	16AA-LL	[4ccc	4ff	.
.	16AA-	.	.	.
.	16AA-	.	.	.
.	16AA-JJ	.	.	.
4BB-	16EE-LL	32cccLLL]	32ee-	<
.	.	(32ddd	16.r	.
.	16EE-	32ccc	.	.
.	.	32dddJJJ	.	.
.	16EE-	32bb-LLL	8r	.
.	.	32ccc	.	.
.	16EE-JJ	32bb-	.	.
.	.	32cccJJJ)	.	.
=25	=25	=25	=25	=25
2r	16AAA-LL	4cc 4aa-	2r	f
.	16AA-	.	.	.
.	16AA-	.	.	.
.	16AA-JJ	.	.	.
.	16AA-LL	4b- 4gg	.	.
.	16AA-	.	.	.
.	16AA-	.	.	.
.	16AA-JJ	.	.	.
*	*	*v	*v	*
*	*	*clefG2	*clefG2
*	*	*^	*
4C	16AA-LL	4A-	[4e-	.
.	16AA-	.	.	.
.	16AA-	.	.	.
.	16AA-JJ	.	.	.
4BB-	16EE-LL	32G	32e-LLL]	<
.	.	16.r	(32f	.
.	16EE-	.	32e-	.
.	.	.	32fJJJ	.
.	16EE-	8r	32d-LLL	.
.	.	.	32e-	.
.	16EE-JJ	.	32d-	.
.	.	.	32e-JJJ)	.
*v	*v	*	*	*
*	*v	*v	*
=26	=26	=26
16AA-LL	8A- 8c	f
16A-	.	.
16A-	(4c (4a-	.
16A-JJ	.	.
16A-LL	.	.
16A-	.	.
16A-	8e-) 8g)	.
16A-JJ	.	.
4A-	(16e- 16gLL	.
.	16d- 16fJ	.
.	8c) 8e-J	.
4r	(16ddnLL	p
.	16ee-	.
.	16ff	.
.	16ee-JJ)	.
=27	=27	=27
(16E-LL	(16ee-LL	.
16B-	16gJ)	.
16d-	[8gJ	.
16B-JJ	.	.
16E-LL	16gLL]	.
16B-	(16g	.
16d-	16a-	.
16B-JJ	(16b-JJ)	.
16E-LL	16.b-LL	.
16A-	.	.
.	32ccJk	.
16c	8a-J)	<
16A-JJ	.	.
16E-LL	(32ddnLLL	.
.	32ee-	.
16A-	32dd	.
.	32ee-JJJ	.
16c	32ddLLL	.
.	32ee-	.
16A-JJ	32ff	.
.	32ee-JJJ)	.
=28	=28	=28
16E-LL	(16ee-LL	p
16G	16b-J)	.
16B-	[8b-J	.
16GJJ	.	.
16E-LL	16b-LL]	.
16G	(16b-	.
16B-	16cc	.
16GJJ	16dd-JJ	.
16E-LL	8bnL	.
16A-	.	.
16c	16ccJk)	.
16A-JJ	16r	.
8E-)	(32bLLL	.
.	32cc	.
.	32b	.
.	32ccJJJ	.
8r	32bLLL	.
.	32cc	.
.	32dd-	.
.	32ccJJJ)	.
=29	=29	=29
*^	*	*
2r	(16DLL	8b- 8ddn 8ff 8aa-	f
.	16F	.	.
.	16B-	4aa-	.
.	16FJJ	.	.
.	8D)	.	.
.	8r	32aa-LLL	.
.	.	32bb-	.
.	.	32aa-	.
.	.	32gg	.
.	.	ffqL	.
.	.	ee-q	.
.	.	ddq	.
.	.	ccq	.
.	.	b-q	.
.	.	a-q	.
.	.	gq	.
.	.	fq	.
.	.	e-q	.
.	.	dq	.
.	.	cq	.
.	.	B-q	.
.	.	A-qJJJJ	.
8r	(16EE-LL	8G	.
.	16GG	.	.
4E-	16BB-	8r	.
.	16GGJJ	.	.
.	8EE-)	4r	.
32FLLL	8r	.	.
32E-	.	.	.
32D	.	.	.
32E-	.	.	.
*v	*v	*	*
=30	=30	=30
32Fq	cqLLLL	.
32Gq	dq	.
32A-qJJJ	e-q	.
.	fq	.
.	gq	.
.	a-q	.
.	b-q	.
.	ccq	.
.	ddq	.
.	ee-q	.
.	ffq	.
.	ggq	.
.	aa-q	.
.	bb-q	.
.	cccq	.
.	dddqJJJJ	.
(16CLL	8eee-	.
16E-	.	.
16An	4eee-	.
16E-JJ	.	.
8C)	.	.
8r	(32dddLLL	.
.	32eee-	.
.	32fff	.
.	32eee-	.
.	32dddq	.
.	32cccq	.
.	32bb-q	.
.	aanqL	.
.	ggq	.
.	ffq	.
.	ee-q	.
.	ddq	.
.	ccq	.
.	b-q	.
.	anq	.
.	gq	.
.	fq	.
.	e-qJJJJ	.
8BB-	32dLLL	.
.	32fJJ	.
.	8b-)	.
*clefG2	*	*
(8d (8a-	.	.
.	[16b-Jk	.
4e-) 4g-)	16b-LL]	p
.	(16ee-	.
.	16cc-	.
.	16anJJ	.
=31	=31	=31
16d 16f	16b-)	.
16r	(16ee-LL	.
(8e- 8g-L	16cc-	.
.	16anJJ	.
16d) 16fJk	16b-)	.
16r	(16ee-LL	.
(8e- 8g-L	16cc-	.
.	16aJJ	.
16d) 16fJk	16b-)	.
16r	(16b-LL	.
8r	16a	.
.	16b-JJ	.
4r	16aLL	.
.	16b-	.
.	16cc-	.
.	16b-JJ)	.
*clefF4	*	*
=32	=32	=32
*^	*^	*
2r	16GG-LL	4d- 4b-	2r	p
.	16G-	.	.	.
.	16G-	.	.	.
.	16G-JJ	.	.	.
.	16G-LL	4c- 4a-	.	.
.	16G-	.	.	.
.	16G-	.	.	.
.	16G-JJ	.	.	.
4B-	16G-LL	[4dd-	4g-	.
.	16G-	.	.	.
.	16G-	.	.	.
.	16G-JJ	.	.	.
4A-	16D-LL	(32dd-LLL]	32f	.
.	.	32ee-	16.r	.
.	16D-	32dd-	.	.
.	.	32ee-JJJ	.	.
.	16D-	32cc-LLL	8r	.
.	.	32dd-	.	.
.	16D-JJ	32cc-	.	.
.	.	32dd-JJJ)	.	.
=33	=33	=33	=33	=33
2r	16GG-LL	4d- 4b-	2r	p
.	16G-	.	.	.
.	16G-	.	.	.
.	16G-JJ	.	.	.
.	16G-LL	4c- 4a-	.	.
.	16G-	.	.	.
.	16G-	.	.	.
.	16G-JJ	.	.	.
4B-	16G-LL	(4dd-	4g-	.
.	16G-	.	.	.
.	16G-	.	.	.
.	16G-JJ	.	.	.
4A-	16D-LL	32dd-LLL	32f	.
.	.	32ee-)	16.r	.
.	16D-	32dd-	.	.
.	.	32ee-JJJ	.	.
.	16D-	32cc-LLL	8r	.
.	.	32dd-	.	.
.	16D-JJ	32cc-	.	.
.	.	32dd-JJJ	.	.
*v	*v	*	*	*
*	*v	*v	*
=34	=34	=34
(16G-LL	8b-	p
16d-	.	.
16B-	4dd-	.
16d-JJ	.	.
16FLL	.	.
16d-	.	.
16F-	16cc-LL	.
16d-JJ	16b-JJ	.
16E-LL	16a-LL	f
16d-	16gnJJ	.
16E-	16r	.
16d-JJ	32r	.
.	32g	.
16E-LL	(16.b-LL	.
16c-	.	.
.	32a-k)	.
16E-	(16.cc-	.
16GnJJ	.	.
.	32b-JJk)	.
=35	=35	=35
16A-LL	(16.dd-LL	p
16e-	.	.
.	32cc-Jk)	.
16c-	[8ee-J	.
16e-JJ	.	.
16GLL	16ee-LL]	.
16e-	(32ddnL	.
.	32ee-	.
16G-	32ff	.
.	32ee-	.
16e-JJ	32dd-	.
.	32ccnJJJ	.
16FnLL	16b-LL	f
16e-	16anJJ)	.
16F	16r	.
16e-JJ	32r	.
.	32a	.
16FLL	(16.ccLL	.
16d-	.	.
.	32b-k)	.
16F	(16.dd-	.
16AnJJ)	.	.
.	32ccJJk)	.
=36	=36	=36
(16B-LL	(16.ee-LL	p
16f	.	.
.	32dd-Jk)	.
16d-	[8ffJ	.
16fJJ	.	.
16AnLL	16ffLL]	<
16f	(32eenL	.
.	32ff	.
16A-	32gg	.
.	32ff	.
16fJJ	32ee-	.
.	32ddnJJJ	.
16GLL	16ccLL	f
16g	16bnJJ)	.
16f	16r	.
16gJJ	32r	.
.	32b	.
16e-LL	(16.ddLL	.
16g	.	.
.	32cck)	.
16Bn	(16.ee-	.
16gJJ	.	.
.	32ddJJk)	.
=37	=37	=37
16cLL	(16.ffLL	p
16g	.	.
.	32ee-Jk)	.
16e-	[8ggJ	.
16gJJ	.	.
16BnLL	8ggL]	.
16g	.	.
16B-	(48ff#LL	.
.	48gg	.
.	48aa-	.
16gJJ	48gg	.
.	48ffn	.
.	48ee-JJJ	.
16A-LL	16.ddLL	f
16g	.	.
.	32ccJk)	.
16e-	([8cccJ	.
16gJJ	.	.
16A-LL	16.cccLL]	.
16f#	.	.
.	32dddk	.
16e-	16eee-	.
16cJJ)	16ff#JJ	.
=38	=38	=38
1r	32gg)	p
.	32GLLL	.
.	32Bn	.
.	32dJJJ	.
.	32g	.
.	32bnLLL	.
.	32dd	.
.	32ggJJJ	.
.	32ff#	.
.	32GLLL	.
.	32c	.
.	32e-JJJ	.
.	32f#	.
.	32anLLL	.
.	32cc	.
.	32ff#JJJ	.
.	32gg	.
.	32GLLL	.
.	32B	.
.	32dJJJ	.
.	32g	.
.	32bLLL	.
.	32dd	.
.	32ggJJJ	.
.	32ff#	.
.	32GLLL	.
.	32c	.
.	32e-JJJ	.
.	32f#	.
.	32aLLL	.
.	32cc	.
.	32ff#JJJ	.
=39	=39	=39
1r	32gg	.
.	32GLLL	.
.	32Bn	.
.	32dJJJ	.
.	32g	.
.	32bnLLL	.
.	32dd	.
.	32ff#JJJ	.
.	32gg	.
.	32GLLL	.
.	32B	.
.	32dJJJ	.
.	32g	.
.	32bLLL	.
.	32dd	.
.	32ggJJJ	.
.	32aa-	.
.	32FnLLL	.
.	32B	.
.	32dJJJ	.
.	32fn	.
.	32bLLL	.
.	32dd	.
.	32aa-JJJ	.
.	32aan	.
.	32E-LLL	.
.	32An	.
.	32cJJJ	.
.	32e-	.
.	32ccLLL	.
.	32ffn	.
.	32aaJJJ	.
=40	=40	=40
4D	(32bb-LLL	f
.	32bbn	.
.	32ccc	.
.	32bb-JJJ	.
.	32aa-LLL	.
.	32gg	.
.	32ff	.
.	32ee-JJJ	.
4r	32ddLLL	.
.	32cc	.
.	32b-	.
.	32anJJJ	.
.	32a-LLL	.
.	32g	.
.	32f	.
.	32e-JJJ	.
2BB- 2F 2A-	32dLLL	.
.	32c	.
.	32B-	.
.	32cJJJ	.
.	32dLLL	.
.	32e-	.
.	32f	.
.	32gJJJ	.
.	32a-LLL	.
.	32g	.
.	32f	.
.	32enJJJ	.
.	32fLLL	pp
.	32g	.
.	32a-	.
.	32a-JJJ)	.
=41	=41	=41
*	*^	*
(16E-LL	[8b-L	2r	p
16G	.	.	.
16B-	(32b-LL]	.	.
.	32cc	.	.
16GJJ	32dd	.	.
.	32ee-JJJ)	.	.
16E-LL	(16ee-LL	.	.
16G	16g)	.	.
16B-	(16g'	.	.
16GJJ	16g'JJ)	.	.
16BB-LL	8..gL	(4e-	.
16E-	.	.	.
16G	.	.	.
16E-JJ	.	.	.
.	32a-Jkk	.	.
16BB-LL	8f	8d)	.
16D	.	.	.
16F	48r	8r	.
.	(48b-LLL	.	.
.	48anJJJ	.	.
16DJJ)	48a-LLL	.	.
.	48g)	.	.
.	48fJJJ	.	.
=42	=42	=42	=42
4E-	(4e-	16GLL	f
.	.	16B-	.
.	.	16G	.
.	.	(16B-JJ)	.
4BB-	4f	16dLL	.
.	.	16B-	.
.	.	16d	.
.	.	16B-JJ)	.
4EE-	(16.gLL	8e-	.
.	32a-JJk	.	p
.	32b-LLL	8r	.
.	32cc	.	.
.	32dd	.	.
.	32ee-JJJ)	.	.
4r	16b-	4r	.
.	16r	.	.
.	(32ee-LLL	.	.
.	32gg	.	.
.	32dd	.	.
.	32ffJJJ	.	.
=43	=43	=43	=43
8r	32ccLLL	2r	.
.	32ee-	.	.
.	32b-	.	.
.	32ddJJJ	.	.
(32DDLLL	32a-LLL	.	.
32D	32cc	.	.
32EE-	32g	.	.
32E-JJJ	32b-JJJ	.	.
32FFLLL	32fLLL	.	.
32F	32a-	.	.
32GG	32e-	.	.
32GJJJ	32gJJJ	.	.
32AA-LLL	32cLLL	.	.
32A-	32cc	.	.
32FF)	32f	.	.
32FJJJ	32a-JJJ)	.	.
(32AnLLL	(4g	(4e-	f
32B-	.	.	.
32c	.	.	.
32B-JJJ	.	.	.
32ALLL	.	.	.
32B-	.	.	.
32G	.	.	.
32E-JJJ	.	.	.
8BB-)	32fLLL)	32d)	.
.	(32e-'	16.r	p
.	32d'	.	.
.	32e-'JJJ	.	.
8r	32f'LLL	8r	.
.	32g'	.	.
.	32a-'	.	.
.	32an'JJJ)	.	.
=44	=44	=44	=44
(16E-LL	2r	[8b-L	.
16G	.	.	.
16B-	.	(32b-LL]	.
.	.	64ddL	.
.	.	64cc	.
16GJJ	.	64ee-	.
.	.	64dd	.
.	.	64ff	.
.	.	64ee-JJJJ)	.
16E-LL	.	(16ee-LL	.
16G	.	16g)	.
16B-	.	16g'	.
16GJJ	.	16g'JJ	.
16BB-LL	(8gL	(4e-	.
16E-	.	.	.
16G	[8b-J)	.	.
16E-JJ	.	.	.
16BB-LL	32b-LLL]	16d)	.
.	(32an'	.	p
16D	32a-'	8.r	.
.	32g'JJJ	.	.
16F	32b-'LLL	.	.
.	32a-'	.	.
16DJJ)	32g'	.	.
.	32f'JJJ)	.	.
=45	=45	=45	=45
4EE- 4E-	8..e-L	16r	f
.	.	(16B-LL	.
.	.	16G	.
.	.	16B-JJ)	.
.	32enJkk	.	.
4BBB- 4BB-	(8..fL	16r	.
.	.	16dLL	.
.	.	16B-	.
.	.	16dJJ)	.
.	32f#Jkk	.	.
4EE- 4E-	16.gLL	8e-	.
.	32a-JJk	.	p
.	48anLLL	8r	.
.	48b-	.	.
.	48bnJJJ	.	.
.	64ccLLLL	.	.
.	64dd-	.	.
.	64ddn	.	.
.	64ee-JJJJ	.	.
4r	4r	16b-	.
.	.	16r	.
.	.	(32ee-'LLL	p
.	.	32dd'	.
.	.	32dd-'	.
.	.	32cc'JJJ)	.
*	*v	*v	*
=46	=46	=46
(32e-'LLL	16bn	.
32dn'	.	.
32d-'	16r	.
32c'JJJ)	.	.
16G 16Bn	(32ee-'LLL	.
.	32ddn'	.
16r	32dd-'	.
.	32cc'JJJ)	.
(32e-'LLL	16b	.
32dn'	.	.
32d-'	16r	.
32c'JJJ)	.	.
16G 16B	(32ee-'LLL	.
.	32ddn'	.
16r	32dd-'	.
.	32cc'JJJ)	.
(4G [4e-	(8.bL	f
.	32.ddnLL	.
.	64ccJJJk)	.
16A-) 16e-]	16cc	.
16r	16r	.
8r	(32f'LLL	p
.	32g'	.
.	32a-'	.
.	32an'JJJ)	.
=47	=47	=47
*^	*^	*
8r	4r	4r	[8b-L	.
8GG 8E-	.	.	(48b-'LL]	<
.	.	.	48bn'	.
.	.	.	48cc'	.
.	.	.	48dd-'	.
.	.	.	48ddn'	.
.	.	.	(48ee-'JJJ)	.
(8GL	4BB-	8.e-L	8.r	f
8A-J)	.	.	.	.
.	.	32gLL	16d	.
.	.	32fJJJ)	.	.
2r	(16E-LL	2r	8e-	p
.	16G	.	.	.
.	16B-	.	8r	.
.	16GJJ	.	.	.
.	16E-LL	.	(8.ccL	.
.	16A-	.	.	.
.	16c	.	.	.
.	16A-JJ	.	32ee-LL	.
.	.	.	32ccJJJ	.
*v	*v	*	*	*
*	*v	*v	*
=48	=48	=48
16E-LL	32b-LLL	.
.	32gg	.
16G	32ff	.
.	32ee-JJJ	.
16B-	32ddLLL	.
.	32ee-	.
16GJJ	32ff	.
.	32ee-JJJ	.
16E-LL	16ddLK	.
16A-	8cc	.
16c)	.	.
16A-JJ	32ee-LL	.
.	32ccJJJ	.
8E- 8G 8B-	32b-LLL	.
.	32gg	.
.	32ff	.
.	32ee-JJJ	.
8r	32ddLLL	.
.	32ee-	.
.	32ff	.
.	32ee-JJJ)	.
8AA- 8C 8F	32r	.
.	(32ee-LLL	.
.	32dd	.
.	32ccJJJ	.
8r	32bnLLL	.
.	32cc	.
.	32dd	.
.	32ccJJJ)	.
=49	=49	=49
16BB- 16G	32r	.
.	(32b-LLL	.
16r	32ee-	.
.	32b-JJJ)	.
16BB- 16E-	32r	.
.	(32gLLL	.
16r	32b-	.
.	32gJJJ)	.
16BB- 16F	32r	.
.	(32a-LLL	.
16r	32cc	.
.	32a-JJJ)	.
16BB- 16A-	32r	.
.	(32dLLL	.
16r	32f	.
.	32dJJJ)	.
(16E-LL	8e-	.
16G	.	.
16B-	32r	.
.	(32ee-LLL	.
16GJJ	32dd	.
.	32dd-JJJ	.
16E-LL	16bnLL	.
16A-	16ccJJ)	.
16c	32ccLLL	.
.	(64ee-L	.
.	64ddn	.
16A-JJ	64ff	.
.	64ee-	.
.	64dd	.
.	64ccJJJJ	.
=50	=50	=50
16E-LL	32b-LLL	.
.	32gg	.
16G	32ff	.
.	32ee-JJJ	.
16B-	32ddLLL	.
.	32ee-	.
16GJJ	32ff	.
.	32ee-JJJ	.
16E-LL	32.ddLLL	f
.	64ccJk)	.
16A-	[16cccJJ	.
16c	64cccLLLL]	.
.	(64bb-'	.
.	64aa-'	.
.	64gg'	.
16A-JJ	64ff'	.
.	64ee-'	.
.	64dd'	.
.	64cc'JJJJ	.
8E- 8G 8B-)	32b-'LLL	p
.	(32gg)	.
.	32ff	.
.	32ee-JJJ	.
8r	32ddLLL	.
.	32ee-	.
.	32ff	.
.	32ee-JJJ)	.
8F 8A- 8B- 8d	32r	.
.	(32aa-LLL	.
.	32gg	.
.	32ffJJJ	.
8r	32eenLLL	.
.	32ff	.
.	32gg	.
.	32ffJJJ)	.
=51	=51	=51
*^	*	*
4r	16r	4bb-	.
.	(16GLL	.	.
.	16B-	.	.
.	16e-JJ)	.	.
.	.	32aa-qLLL	.
.	.	32ggq	.
.	.	32ffq	.
.	.	ee-qL	.
.	.	ddq	.
.	.	ccq	.
.	.	b-q	.
.	.	a-q	.
.	.	gq	.
.	.	fq	.
.	.	e-q	.
.	.	dq	.
.	.	cq	.
.	.	B-q	.
.	.	A-qJJJJ	.
4G	16r	2.r	.
.	(16CCLL	.	.
.	16EE-	.	.
.	16CJJ)	.	.
4F	16r	.	.
.	(16AAA-LL	.	.
.	16CC	.	.
.	16AA-JJ)	.	.
[4E-	16r	.	.
.	(16AAAnLL	.	.
.	16CC	.	.
.	16FFJJ)	.	.
=52	=52	=52	=52
16E-LK]	(8BBB-L	2.r	.
8D	.	.	.
.	8EE-	.	.
8C	.	.	.
.	8DD	.	.
8BB-	.	.	.
.	8CCJ)	.	.
16AAnJk	.	.	.
4AA-;	4BBB-; 4DD; 4FF;	.	.
*v	*v	*	*
4r	4r	.
BB-qLLLL	.	.
AA-q	.	.
GGq	.	.
AA-q	.	.
BB-q	.	.
Cq	.	.
Dq	.	.
E-q	.	.
Fq	.	.
GqJJJJ	.	.
=53	=53	=53
16E-	32r	pp
.	(32ggLLL	.
16r	32bb-	.
.	32ggJJJ)	.
16G	32r	.
.	(32ee-LLL	.
16r	32gg	.
.	32ee-JJJ)	.
16A-	32r	.
.	(32ccLLL	.
16r	32ee-	.
.	32ccJJJ)	.
16c	32r	.
.	(32a-LLL	.
16r	32cc	.
.	32a-JJJ)	.
(16BB-LL	(32gLLK	.
.	16b-	.
16G	.	.
.	16an	.
16E-	.	.
.	16a-	.
16GJJ	.	.
.	32gJJk)	.
16BB-LL	(8.fL	.
16A-	.	.
16D	.	.
16A-JJ)	32e-LL	.
.	32fJJJ	.
=54	=54	=54
32E-LLL	8e-)	.
(32G	.	.
32B-	.	.
32G	.	.
32B-	8r	.
32G	.	.
32B-	.	.
32GJJJ	.	.
8BB- 8A-)	(32dLLL	.
.	32f	.
.	32cc	.
.	32b-	.
8r	32cc	.
.	32b-	.
.	32cc	.
.	32b-JJJ)	.
(32E-LLL	(8b-L	.
32G	.	.
32B-	.	.
32G	.	.
32B-	16ee-Jk)	.
32G	.	.
32B-	16r	.
32GJJJ	.	.
8BB- 8A-)	(32dLLL	.
.	32f	.
.	32cc	.
.	32b-	.
8r	32cc	.
.	32b-	.
.	32cc	.
.	32b-JJJ)	.
=55	=55	=55
(32E-LLL	(8b-L	.
32G	.	.
32B-	.	.
32G	.	.
32B-	16e-Jk)	.
32G	.	.
32B-	16r	.
32GJJJ	.	.
8BB- 8A-)	(32dLLL	.
.	32f	.
.	32cc	.
.	32b-	.
8r	32cc	.
.	32b-	.
.	32cc	.
.	(32b-JJJ)	.
8E- 8G	32b-LLL	.
.	32e-	.
.	32ee-)	.
.	32ee-'JJJ	.
8r	(32ee-LLL	.
.	32g	.
.	32gg)	.
.	32gg'JJJ	.
8r	(32ggLLL	.
.	32b-	.
.	32bb-)	.
.	32bb-'JJJ	.
*clefG2	*	*
(8B- 8d (8a-	(32bb-'LLL	.
.	32bb-'	.
.	32bb-'	.
.	32bb-'JJJ)	.
=56	=56	=56
16e-) 16g)	16ee-	.
16r	16r	.
(8B- 8d (8a-	(32bb-'LLL	.
.	32bb-'	.
.	32bb-'	.
.	32bb-'JJJ)	.
16e-) 16g)	16ee-	.
16r	16r	.
(8B- 8d (8a-	(32bb-'LLL	.
.	32bb-'	.
.	32bb-'	.
.	32bb-'JJJ)	.
16e-) 16g)	16eee-	.
16r	16r	.
8r	8r	.
*clefF4	*	*
(32BB-'LLL	(4A- 4B- (4d	.
32BB-'	.	.
32BB-'	.	.
32BB-'JJJ	.	.
32BB-'LLL	.	.
32BB-'	.	.
32BB-'	.	.
32BB-'JJJ)	.	.
=57	=57	=57
16EE-	16G) 16B- 16e-)	.
16r	16r	.
(32BB-'LLL	(8A- 8B- 8d 8f	.
32BB-'	.	.
32BB-'	.	.
32BB-'JJJ)	.	.
16EE-	16G) 16B- 16e-	.
16r	16r	.
(32BBB-'LLL	(8A- 8B- 8d 8f	.
32BBB-'	.	.
32BBB-'	.	.
32BBB-'JJJ)	.	.
16EE-	16G) 16B- 16e-	.
16r	16r	.
8r	8r	.
4r	4r	.
==	==	==
*-	*-	*-
!!!SMS: Alte Mozart-Ausgabe, Band 20, Breitkopf &amp; H&auml;rtel 1877-1883.
!!!ONB: Stich und Druck von Breitkopf &amp; H&auml;rtel in Leipzig
!!!ONB: Ausgegeben 1878
!!!ENC: Craig Stuart Sapp
!!!END: 2009/10/01/
!!!title: @{OTL}, K 457, @{OMV}
!!!hum2abc: --no-tempo -s 0.71 --spacing 1.9 -p "%gracespace  0 6.0 12.0"
